X: 891
M: C
L: 1/8
K: A
V: 1
d |\
ce-ec dcTBA | ce e/e/e a2ea |\
|: (f/g/) |\
(a/g/f/e/) ac d>c B(f/g/ | a)fec efge |\
(a/g/f/e/) (f/e/d/c/) dcTB2 | ceAa Te2A :|
V: 2 clef=bass middle=d
a |\
a2a2 e2e2 | a2a2 a2a2 |\
d2d2 e2e2 | A2A2 A2A :|\
|: z |
a2a2 b2b2 | a2a2 a2a2 |\
d2d2 e2e2 | A2A2 A2A :|

